meshapp/src/assets/svgs/GoogleLogo.svg

<svg
    viewBox="-0.5 0 48 48"
    version="1.1"
    xmlns="http://www.w3.org/2000/svg"
    xmlnsXlink="http://www.w3.org/1999/xlink"
    fill="#000000"
>
    <g id="SVGRepo_bgCarrier" stroke-width="0"/>
    <g
        id="SVGRepo_tracerCarrier"
        strokeLinecap="round"
        strokeLinejoin="round"
    />
    <g id="SVGRepo_iconCarrier">
        <title>Google-color</title> <desc>Created with Sketch.</desc>
        <defs> </defs>
        <g
        id="Icons"
        stroke="none"
        strokeWidth="1"
        fill="none"
        fillRule="evenodd"
        >
        <g id="Color-" transform="translate(-401.000000, -860.000000)">
            <g id="Google" transform="translate(401.000000, 860.000000)">
            <path
                d="M9.82727273,24 C9.82727273,22.4757333 10.0804318,21.0144 10.5322727,19.6437333 L2.62345455,13.6042667 C1.08206818,16.7338667 0.213636364,20.2602667 0.213636364,24 C0.213636364,27.7365333 1.081,31.2608 2.62025,34.3882667 L10.5247955,28.3370667 C10.0772273,26.9728 9.82727273,25.5168 9.82727273,24"
                id="Fill-1"
                fill="#FBBC05"
            ></path>
            <path
                d="M23.7136364,10.1333333 C27.025,10.1333333 30.0159091,11.3066667 32.3659091,13.2266667 L39.2022727,6.4 C35.0363636,2.77333333 29.6954545,0.533333333 23.7136364,0.533333333 C14.4268636,0.533333333 6.44540909,5.84426667 2.62345455,13.6042667 L10.5322727,19.6437333 C12.3545909,14.112 17.5491591,10.1333333 23.7136364,10.1333333"
                id="Fill-2"
                fill="#EB4335"
            ></path>
            <path
                d="M23.7136364,37.8666667 C17.5491591,37.8666667 12.3545909,33.888 10.5322727,28.3562667 L2.62345455,34.3946667 C6.44540909,42.1557333 14.4268636,47.4666667 23.7136364,47.4666667 C29.4455,47.4666667 34.9177955,45.4314667 39.0249545,41.6181333 L31.5177727,35.8144 C29.3995682,37.1488 26.7323182,37.8666667 23.7136364,37.8666667"
                id="Fill-3"
                fill="#34A853"
            ></path>
            <path
                d="M46.1454545,24 C46.1454545,22.6133333 45.9318182,21.12 45.6113636,19.7333333 L23.7136364,19.7333333 L23.7136364,28.8 L36.3181818,28.8 C35.6879545,31.8912 33.9724545,34.2677333 31.5177727,35.8144 L39.0249545,41.6181333 C43.3393409,37.6138667 46.1454545,31.6490667 46.1454545,24"
                id="Fill-4"
                fill="#4285F4"
            ></path>
            </g>
        </g>
        </g>
    </g>
    </svg>

<svg xmlns="http://www.w3.org/2000/svg" viewBox="-0.5 0 48 48"><g fill="none"><path fill="#FBBC05" d="M9.827 24c0-1.524.253-2.986.705-4.356l-7.909-6.04A23.46 23.46 0 0 0 .213 24c0 3.737.868 7.26 2.407 10.388l7.905-6.05A13.9 13.9 0 0 1 9.827 24"/><path fill="#EB4335" d="M23.714 10.133c3.311 0 6.302 1.174 8.652 3.094L39.202 6.4C35.036 2.773 29.695.533 23.714.533a23.43 23.43 0 0 0-21.09 13.071l7.908 6.04a13.85 13.85 0 0 1 13.182-9.51"/><path fill="#34A853" d="M23.714 37.867a13.85 13.85 0 0 1-13.182-9.51l-7.909 6.038a23.43 23.43 0 0 0 21.09 13.072c5.732 0 11.205-2.036 15.312-5.849l-7.507-5.804c-2.118 1.335-4.786 2.053-7.804 2.053"/><path fill="#4285F4" d="M46.145 24c0-1.387-.213-2.88-.534-4.267H23.714V28.8h12.604c-.63 3.091-2.346 5.468-4.8 7.014l7.507 5.804c4.314-4.004 7.12-9.969 7.12-17.618"/></g></svg>
